src/48x48/places/folder-gruvbox-original-green-photo.svg

<?xml version="1.0" encoding="UTF-8"?>
<svg width="48" height="48" version="1" xmlns="http://www.w3.org/2000/svg">
 <rect x="4" y="17" width="40" height="26" rx="2" ry="2" opacity=".2"/>
 <path d="m4 34c0 1.108 0.892 2 2 2h36c1.108 0 2-0.892 2-2v-22c0-1.108-0.892-2-2-2h-18c-3 0-4-4-7-4h-11c-1.108 0-2 0.892-2 2" fill="#79740e"/>
 <rect x="4" y="15" width="40" height="26" rx="2" ry="2" opacity=".2"/>
 <rect x="6" y="13" width="36" height="16" rx="2" ry="2" fill="#d7d9ae"/>
 <rect x="4" y="16" width="40" height="26" rx="2" ry="2" fill="#b8bb26"/>
 <path d="m6 6c-1.108 0-2 0.892-2 2v1c0-1.108 0.892-2 2-2h11c3 0 4 4 7 4h18c1.108 0 2 0.892 2 2v-1c0-1.108-0.892-2-2-2h-18c-3 0-4-4-7-4z" fill="#d7d9ae" opacity=".1"/>
 <path d="m20 22-1 2h-1.5c-1.385 0-2.5 1.115-2.5 2.5v7c0 1.385 1.115 2.5 2.5 2.5h13c1.385 0 2.5-1.115 2.5-2.5v-7c0-1.385-1.115-2.5-2.5-2.5h-1.5l-1-2zm4 4c1.657 0 3 1.343 3 3s-1.343 3-3 3-3-1.343-3-3 1.343-3 3-3z" fill="#333e34"/>
</svg>

<svg xmlns="http://www.w3.org/2000/svg" width="48" height="48" version="1">
 <rect style="opacity:0.2" width="40" height="26" x="4" y="17" rx="2" ry="2"/>
 <path style="fill:#79740e" d="M 4,34 C 4,35.108 4.892,36 6,36 H 42 C 43.108,36 44,35.108 44,34 V 12 C 44,10.892 43.108,10 42,10 H 24 C 21,10 20,6 17,6 H 6 C 4.892,6 4,6.892 4,8"/>
 <rect style="opacity:0.2" width="40" height="26" x="4" y="15" rx="2" ry="2"/>
 <rect style="fill:#d7d9ae" width="36" height="16" x="6" y="13" rx="2" ry="2"/>
 <rect style="fill:#b8bb26" width="40" height="26" x="4" y="16" rx="2" ry="2"/>
 <path style="opacity:0.1;fill:#d7d9ae" d="M 6,6 C 4.892,6 4,6.892 4,8 V 9 C 4,7.892 4.892,7 6,7 H 17 C 20,7 21,11 24,11 H 42 C 43.108,11 44,11.892 44,13 V 12 C 44,10.892 43.108,10 42,10 H 24 C 21,10 20,6 17,6 Z"/>
 <path style="fill:#333e34" d="M 20,22 19,24 H 17.5 C 16.115,24 15,25.115 15,26.5 V 33.5 C 15,34.885 16.115,36 17.5,36 H 30.5 C 31.885,36 33,34.885 33,33.5 V 26.5 C 33,25.115 31.885,24 30.5,24 H 29 L 28,22 Z M 24,26 C 25.657,26 27,27.343 27,29 27,30.657 25.657,32 24,32 22.343,32 21,30.657 21,29 21,27.343 22.343,26 24,26 Z"/>
</svg>
